X: 36223
T: Scully Casey's
R: jig
M: 6/8
K: Adorian
B|c2A BAG|EAA GAB|c2c dcd|ega ged|
c2A BAG|EAA GAB|c2e dBG|BAG A2:|
B|c2c dcd|ega ged|eaa aga|bag a2g|
eaa c'aa|b2a ged|c2e dBG|BAG A2:|

